app/assets/images/payment_icons/american_express.svg

<svg xmlns="http://www.w3.org/2000/svg" width="38" height="24" fill="none" aria-labelledby="pi-american_express" role="img" viewBox="0 0 38 24"><title id="pi-american_express">American Express</title><g clip-path="url(#pi-american_express_clip)"><path fill="#006FCF" d="M0 0h38v24H0z"/><path fill="#fff" d="M23.012 19.936v-8.421L38 11.528v2.326l-1.732 1.852L38 17.573v2.375h-2.766l-1.47-1.622-1.46 1.628-9.292-.02z"/><path fill="#006FCF" d="M24.013 19.012v-6.57h5.572v1.513h-3.768v1.028h3.678v1.488h-3.678v1.01h3.768v1.531z"/><path fill="#006FCF" d="m29.557 19.012 3.083-3.289-3.083-3.282h2.386l1.884 2.083 1.89-2.082H38v.051l-3.017 3.23L38 18.92v.093h-2.307l-1.917-2.103-1.898 2.104h-2.321z"/><path fill="#fff" d="M23.71 4.04h3.614l1.269 2.881V4.04h4.46l.77 2.159.771-2.159H38v8.421H20z"/><path fill="#006FCF" d="m24.395 4.955-2.916 6.566h2l.55-1.315h2.98l.55 1.315h2.05l-2.904-6.566zm.25 3.777.875-2.09.873 2.09z"/><path fill="#006FCF" d="M29.581 11.52V4.953l2.811.01L33.84 9l1.456-4.046H38v6.565l-1.74.016v-4.51l-1.644 4.494h-1.59L31.35 7.01v4.51h-1.769"/></g><defs><clipPath id="pi-american_express_clip"><path fill="#fff" d="M0 0h38v24H0z"/></clipPath></defs></svg>

<svg xmlns="http://www.w3.org/2000/svg" width="38" height="24" viewBox="0 0 38 24" fill="none" aria-labelledby="pi-american_express" role="img"><title id="pi-american_express">American Express</title><g clip-path="url(#pi-american_express_clip)"><rect width="38" height="24" fill="#006FCF"/><path d="M23.012 19.936V11.515L38 11.528V13.854L36.268 15.706L38 17.573V19.948H35.234L33.764 18.326L32.304 19.954L23.012 19.934V19.936Z" fill="white"/><path d="M24.013 19.012V12.442H29.585V13.955H25.817V14.983H29.495V16.471H25.817V17.481H29.585V19.012H24.013Z" fill="#006FCF"/><path d="M29.557 19.012L32.64 15.723L29.557 12.441H31.943L33.827 14.524L35.717 12.442H38V12.493L34.983 15.723L38 18.92V19.013H35.693L33.776 16.91L31.878 19.014H29.557V19.012Z" fill="#006FCF"/><path d="M23.71 4.04H27.324L28.593 6.921V4.04H33.053L33.823 6.199L34.594 4.04H38V12.461H20L23.71 4.04Z" fill="white"/><path d="M24.395 4.955L21.479 11.521H23.479L24.029 10.206H27.009L27.559 11.521H29.609L26.705 4.955H24.395ZM24.645 8.732L25.52 6.642L26.393 8.732H24.645Z" fill="#006FCF"/><path d="M29.581 11.52V4.953L32.392 4.963L33.84 9L35.296 4.954H38V11.519L36.26 11.535V7.025L34.616 11.519H33.026L31.35 7.01V11.52H29.582H29.581Z" fill="#006FCF"/></g><defs><clipPath id="pi-american_express_clip"><rect width="38" height="24" fill="white"/></clipPath></defs></svg>
